X:1
T:Title
%%score { 1 | ( 2 3 ) }
L:1/8
M:4/4
K:Ab
V:1 treble nm="Grand Piano"
V:2 bass 
V:3 bass 
V:1
 z4 z2[Q:1/4=94] [CA]>[DB] | [Ec]2 [=D_c]>[E=c] [Fd]2 [Ec]>[Fd] | c2 B2 B2 G>A | B2 B>c d2 F>G | %4
 [CE]6 [CA]>[DB] | [Ec]2 [Ec]>[=D_c] [E=c]2 [_Ge]>[Ge] | [Fe]2 [Fd]2 [Fd]2 F>F | E2 A>A G2 F>G | %8
[M:3/4] [CEA]6 |[M:1/4] c2 |[M:4/4] c>B B>c d2 e>d | c>c c>B A2 cd | e2 c>c dc B>A | B6 E>E | %14
 [CA]>[CA] [CA]>[DB] [Ec]2 [DB]>[CA] | B>B B>c d2 c>B | c2 e>e [Ge]2 [Gd]>[DEB] |[M:3/4] [CEA]6 |] %18
V:2
 z4 z2 [A,,E,]>[A,,E,] | [A,,A,]2 [A,,A,]>[A,,A,] [A,,A,]2 [A,,A,]>[A,,A,] | %2
 [E,A,E]2 [E,G,E]2 [E,G,E]2 [E,B,E]>[E,CE] | [E,DE]2 [E,G,E]>[E,A,E] [E,B,E]2 [E,G,D]>[E,B,D] | %4
 [A,,A,]6 [A,,E,]>[A,,E,] | [A,,A,]2 [A,,A,]>[A,,A,] [A,,A,]2 [C,A,]>[C,A,] | %6
 [D,A,]2 [D,A,]2 [D,A,]2 [D,A,D]>[D,A,D] | [E,A,C]2 [E,CE]>[E,CE] [E,B,E]2 [E,DE]>[E,DE] | %8
[M:3/4] A,,6 |[M:1/4] [A,E]2 |[M:4/4] [E,A,E]>[E,G,E] [E,G,E]>[E,A,E] [E,B,E]2 [E,G,E]>[E,G,E] | %11
 z4 z2 [A,E]2 | z4 .[B,G]2[K:bass] z2 | [E,G,E]6 E,>E, | %14
 [A,,E,]>[A,,E,] [A,,E,]>[A,,E,] [A,,A,]2 [A,,E,]>[A,,E,] | %15
 [E,G,E]>[E,G,E] [E,G,E]>[E,A,E] [E,B,E]2 [E,A,E]>[E,G,E] | %16
 [A,E]2 [A,CA]>[A,CA][K:bass] [E,B,]2 [E,B,]>E, |[M:3/4] A,,6 |] %18
V:3
 x8 | x8 | x8 | x8 | x8 | x8 | x8 | x8 |[M:3/4] x6 |[M:1/4] x2 |[M:4/4] x8 | %11
 [A,E]>[A,E] [A,E]>[A,D] [A,C]2 z B, | [A,CA]2 [A,EA]>[A,EA] E-[A,EA][K:bass] [G,B,E]>[F,B,=D] | %13
 x8 | x8 | x8 | x4[K:bass] x4 |[M:3/4] x6 |] %18

